svg/set/MAT/80.svg

<?xml version="1.0" encoding="utf-8"?>
<!-- Generator: Adobe Illustrator 15.1.0, SVG Export Plug-In . SVG Version: 6.00 Build 0)  -->
<!DOCTYPE svg PUBLIC "-//W3C//DTD SVG 1.1//EN" "http://www.w3.org/Graphics/SVG/1.1/DTD/svg11.dtd">
<svg version="1.1" id="Layer_1" xmlns="http://www.w3.org/2000/svg" xmlns:xlink="http://www.w3.org/1999/xlink" x="0px" y="0px"
	 width="155px" height="155px" viewBox="0 0 155 155" enable-background="new 0 0 155 155" xml:space="preserve">
<g id="Layer_1_1_">
</g>
<g id="Layer_3" display="none">
</g>
<g>
	
		<rect x="71.02" y="71.217" transform="matrix(0.7071 0.7071 -0.7071 0.7071 77.4454 -31.9656)" fill="none" width="12.582" height="12.584"/>
	<path fill="#5D5E61" d="M38.927,90.168l-22.084,31.727C-2.532,95.567-2.532,59.452,16.842,33.126l22.083,31.726L26.268,77.51
		L38.927,90.168z M77.312,26.466l12.659,12.658l31.727-22.083c-26.328-19.375-62.444-19.375-88.77,0l31.727,22.083L77.312,26.466z
		 M77.311,128.552l-12.656-12.656l-31.727,22.084c26.326,19.373,62.441,19.373,88.767,0l-31.727-22.085L77.311,128.552z
		 M137.781,33.126l-22.082,31.727l12.656,12.656l-12.658,12.657l22.084,31.727C157.156,95.567,157.156,59.452,137.781,33.126z
		 M150.727,150.924l-42.77-61.446l11.969-11.969l-11.969-11.968l42.77-61.446L89.281,46.865l-11.969-11.97l-11.97,11.969
		L3.898,4.096l42.769,61.445L34.697,77.51l11.971,11.97l-42.77,61.444l61.446-42.769l11.968,11.967l11.97-11.969L150.727,150.924z
		 M77.311,86.406l-8.897-8.896l8.898-8.897l8.897,8.896L77.311,86.406z"/>
	<path d="M31.185,90.855l-14.139,20.312c-11.631-20.845-11.631-46.47,0-67.314l14.138,20.312L17.839,77.51L31.185,90.855z
		 M137.578,43.854l-14.139,20.311l13.344,13.345l-13.344,13.345l14.139,20.313C149.207,90.321,149.207,64.697,137.578,43.854z
		 M77.312,18.037l13.346,13.347l20.313-14.14c-20.848-11.632-46.47-11.632-67.317,0l20.313,14.139L77.312,18.037z M77.311,136.98
		l-13.345-13.344l-20.312,14.139c20.845,11.63,46.468,11.63,67.314,0l-20.313-14.14L77.311,136.98z M111.496,77.509L100.215,88.79
		l26.619,38.24l-38.242-26.617l-11.281,11.28l-11.28-11.279l-38.24,26.616l26.617-38.239L43.126,77.51l11.281-11.281l-26.617-38.24
		l38.24,26.617l11.281-11.281l11.282,11.282l38.24-26.618l-26.617,38.24L111.496,77.509z M77.312,60.183L59.985,77.51l17.326,17.326
		l17.328-17.327L77.312,60.183z"/>
</g>
</svg>

<?xml version="1.0" encoding="UTF-8" standalone="no"?>
<!-- Generator: Adobe Illustrator 15.1.0, SVG Export Plug-In . SVG Version: 6.00 Build 0)  -->

<svg
   version="1.1"
   id="Layer_1"
   x="0px"
   y="0px"
   width="150.00063"
   height="150"
   viewBox="0 0 150.00063 150"
   enable-background="new 0 0 155 155"
   xml:space="preserve"
   xmlns="http://www.w3.org/2000/svg"
   xmlns:svg="http://www.w3.org/2000/svg"><defs
   id="defs2" />
<g
   id="Layer_1_1_"
   transform="translate(-2.311625,-2.50975)">
</g>
<g
   id="Layer_3"
   display="none"
   transform="translate(-2.311625,-2.50975)">
</g>
<g
   id="g2"
   transform="translate(-2.311625,-2.50975)">
	
		<rect
   x="71.019997"
   y="71.217003"
   transform="matrix(0.7071,0.7071,-0.7071,0.7071,77.4454,-31.9656)"
   fill="none"
   width="12.582"
   height="12.584"
   id="rect1" />
	<path
   fill="#5d5e61"
   d="M 38.927,90.168 16.843,121.895 C -2.532,95.567 -2.532,59.452 16.842,33.126 L 38.925,64.852 26.268,77.51 Z M 77.312,26.466 89.971,39.124 121.698,17.041 C 95.37,-2.334 59.254,-2.334 32.928,17.041 L 64.655,39.124 Z M 77.311,128.552 64.655,115.896 32.928,137.98 c 26.326,19.373 62.441,19.373 88.767,0 L 89.968,115.895 Z m 60.47,-95.426 -22.082,31.727 12.656,12.656 -12.658,12.657 22.084,31.727 c 19.375,-26.326 19.375,-62.441 0,-88.767 z M 150.727,150.924 107.957,89.478 119.926,77.509 107.957,65.541 150.727,4.095 89.281,46.865 77.312,34.895 65.342,46.864 3.898,4.096 46.667,65.541 34.697,77.51 46.668,89.48 3.898,150.924 65.344,108.155 77.312,120.122 89.282,108.153 Z M 77.311,86.406 68.414,77.51 l 8.898,-8.897 8.897,8.896 z"
   id="path1" />
	<path
   d="M 31.185,90.855 17.046,111.167 C 5.415,90.322 5.415,64.697 17.046,43.853 L 31.184,64.165 17.839,77.51 Z m 106.393,-47.001 -14.139,20.311 13.344,13.345 -13.344,13.345 14.139,20.313 c 11.629,-20.847 11.629,-46.471 0,-67.314 z M 77.312,18.037 90.658,31.384 110.971,17.244 C 90.123,5.612 64.501,5.612 43.654,17.244 L 63.967,31.383 Z M 77.311,136.98 63.966,123.636 43.654,137.775 c 20.845,11.63 46.468,11.63 67.314,0 L 90.655,123.635 Z M 111.496,77.509 100.215,88.79 126.834,127.03 88.592,100.413 77.311,111.693 66.031,100.414 27.791,127.03 54.408,88.791 43.126,77.51 54.407,66.229 27.79,27.989 66.03,54.606 77.311,43.325 88.593,54.607 126.833,27.989 100.216,66.229 Z M 77.312,60.183 59.985,77.51 77.311,94.836 94.639,77.509 Z"
   id="path2" />
</g>
</svg>
